public/icons/icon/font-draw.svg

<svg width="30" height="30" viewBox="0 0 30 30" fill="none" xmlns="http://www.w3.org/2000/svg">
<path d="M22.9653 11.963C19.0295 11.963 15.66 18.3319 19.0568 21.626C22.4536 24.92 24.844 17.453 24.9101 14.5982C24.9762 11.7433 26.3161 19.7261 28.2027 22.0685M1.80066 18.5791C1.80066 18.5791 6.13657 17.2677 13.0913 17.1801M3.72369 10.8073C3.63751 13.382 3.63214 15.4219 3.63908 17.0238M3.63908 17.0238C3.65333 20.3146 3.71952 21.7569 3.24375 22.1894C2.94958 22.4569 3.08476 19.9997 3.63908 17.0238ZM3.63908 17.0238C4.41765 12.8439 6.02309 7.64045 8.42708 7.52541C12.5426 7.32846 9.81291 15.6345 14.25 22.5798" stroke="black" stroke-width="3.2" stroke-linecap="round"/>
</svg>

<svg xmlns="http://www.w3.org/2000/svg" width="30" height="30" fill="none"><path stroke="#000" stroke-linecap="round" stroke-width="3.2" d="M22.965 11.963c-3.936 0-7.305 6.369-3.908 9.663 3.397 3.294 5.787-4.173 5.853-7.028.066-2.855 1.406 5.128 3.293 7.47M1.8 18.58s4.336-1.311 11.29-1.399m-9.367-6.373a159.096 159.096 0 0 0-.085 6.217m0 0c.014 3.29.08 4.733-.395 5.165-.294.268-.16-2.19.395-5.165Zm0 0c.779-4.18 2.384-9.384 4.788-9.499 4.116-.197 1.386 8.11 5.823 15.055"/></svg>
